src/components/stable/gux-icon/icons/cc-missed-inbound.svg

<svg viewBox="0 0 25 28" fill="none" xmlns="http://www.w3.org/2000/svg">
  <path d="M17.0151 20.5827C16.5165 19.5743 15.4651 18.9579 14.3585 18.9579L10.761 19.0138L6.60962 10.7214L9.04545 8.31271C9.70958 7.41605 9.81994 6.18326 9.10063 4.72707L7.38511 1.30899C6.72097 -0.0354976 5.17099 -0.42747 4.00825 0.525044C2.23655 1.98123 0.908282 3.99898 0.244146 6.24013C-0.198277 7.75318 -0.0327441 9.37794 0.686569 10.7783L2.73415 14.8686L5.3907 20.1348L7.49446 24.281C8.1586 25.6814 9.32133 26.7466 10.76 27.3061C12.9741 28.1469 15.4651 28.2028 17.7344 27.5864C19.0075 27.2503 19.6716 25.7372 19.0627 24.5613C18.3433 23.2168 17.6792 21.9282 17.0151 20.5837V20.5827ZM21.9971 10.0502L24.5433 7.47291C25.1522 6.85652 25.1522 5.90401 24.5433 5.34346C23.9343 4.72707 22.9933 4.72707 22.4395 5.34346L19.8933 7.92074L17.3471 5.34346C16.7382 4.72707 15.7972 4.72707 15.2434 5.34346C14.6896 5.95986 14.6344 6.91237 15.2434 7.47291L17.7896 10.0502L15.2434 12.5716C14.6344 13.188 14.6344 14.1405 15.2434 14.7011C15.5203 14.9813 15.9075 15.1489 16.2948 15.1489C16.682 15.1489 17.0692 14.9803 17.3461 14.7011L19.8371 12.1796L22.3282 14.7011C22.605 14.9813 22.9923 15.1489 23.3795 15.1489C23.7668 15.1489 24.154 14.9803 24.4309 14.7011C25.0399 14.0847 25.0399 13.1321 24.4309 12.5716L21.9951 10.0502H21.9971Z"/>
</svg>

<svg viewBox="0 0 25 28" fill="none" xmlns="http://www.w3.org/2000/svg"><path d="M17.015 20.583c-.498-1.009-1.55-1.625-2.657-1.625l-3.597.056L6.61 10.72l2.435-2.408c.665-.897.775-2.13.056-3.586L7.385 1.31C6.721-.035 5.171-.427 4.008.525 2.237 1.981.908 3.999.244 6.24a6.156 6.156 0 00.443 4.538l2.047 4.09 2.657 5.267 2.103 4.146a5.992 5.992 0 003.266 3.025c2.214.84 4.705.897 6.974.28 1.273-.336 1.938-1.849 1.329-3.025a135.692 135.692 0 01-2.048-3.977v-.001zm4.982-10.533l2.546-2.577c.61-.616.61-1.569 0-2.13-.609-.616-1.55-.616-2.104 0l-2.546 2.578-2.546-2.578c-.609-.616-1.55-.616-2.104 0-.553.617-.609 1.57 0 2.13l2.547 2.577-2.547 2.522c-.609.616-.609 1.569 0 2.13.277.28.665.447 1.052.447s.774-.169 1.051-.448l2.491-2.521 2.491 2.521c.277.28.664.448 1.052.448.387 0 .774-.169 1.05-.448.61-.616.61-1.569 0-2.13l-2.435-2.52h.002z"/></svg>
